X: 1699
T: the Lakeside Road   #2
R: hornpipe, reel
%S: s:2 b:12(6+6)
B: O'Neill's 1850 #1699
O: J.O'Neill
M: 2/4
L: 1/16
K: G
(DF) \
|:   G2GF GBdB | cdef gfge |\
[1,3 dBGB dBGB | ABcA GFED :|\
[2,4 dgdc BcAF | G2GG G2 :|
(Bc) \
|:   d2Bd GdBd |[1  e2ce Aece :|\
[2   AFDF AFDF :|[3 cdef gfge \
|    dgdc BcAF | G2GG G2 :|
